img/dn-red.svg

<svg width="34" height="34" viewBox="0 0 34 34" fill="none" xmlns="http://www.w3.org/2000/svg">
<g id="dzen">
<path id="Vector" d="M19.5505 33.4265H16.7339C16.7761 32.3595 16.8134 31.2926 16.8637 30.2256C16.8999 29.4408 16.931 28.654 17.0035 27.8711C17.0799 27.0396 17.1845 26.2091 17.3113 25.3826C17.4356 24.5431 17.6602 23.7211 17.9802 22.9337C18.8755 20.7541 20.4437 19.2511 22.6688 18.4215C23.9685 17.9367 25.3305 17.7351 26.7046 17.6C27.283 17.5423 27.8624 17.5006 28.4418 17.4649C29.2325 17.4172 30.0235 17.3771 30.8148 17.3446C31.4606 17.3168 32.1064 17.3039 32.7522 17.2831C32.8628 17.2831 32.9735 17.2701 33.0972 17.2632V17.4281C33.0902 18.5258 33.0892 19.6246 33.0751 20.7223C33.0499 22.6288 32.9876 24.5332 32.6828 26.4207C32.5419 27.4062 32.2735 28.3698 31.8841 29.2878C31.4636 30.2365 30.8782 31.0571 29.9929 31.6452C29.3201 32.0834 28.5828 32.4165 27.8071 32.6327C26.5235 33.0072 25.2058 33.1821 23.8759 33.2615C22.6598 33.3351 21.4396 33.3609 20.2214 33.4026L19.5505 33.4265Z" fill="#C8102E"/>
<path id="Vector_2" d="M0.00231934 16.9068V14.1252C0.00936079 13.9474 0.021432 13.7696 0.0244497 13.5907C0.0506037 11.6933 0.105929 9.79679 0.392617 7.91621C0.530385 6.93908 0.781157 5.98077 1.14002 5.06007C1.71943 3.61759 2.70724 2.57647 4.15778 1.9506C5.17376 1.51547 6.23803 1.27009 7.32644 1.10915C8.60159 0.928316 9.88703 0.827115 11.1751 0.806155C12.864 0.770391 14.553 0.766417 16.2419 0.748535H16.3646C16.3646 0.82503 16.3646 0.879669 16.3646 0.935302C16.3234 1.95954 16.2852 2.98378 16.2399 4.00801C16.2097 4.66567 16.1866 5.32531 16.1272 5.98099C16.0538 6.80057 15.9593 7.61917 15.8506 8.43578C15.7382 9.2973 15.5307 10.1441 15.232 10.9611C14.6355 12.5725 13.6507 13.8898 12.2031 14.8574C11.2023 15.526 10.0907 15.9303 8.92183 16.1876C7.88877 16.4098 6.84038 16.5555 5.78536 16.6237C4.85388 16.6893 3.92139 16.7519 2.9889 16.7966C1.99103 16.8453 0.99617 16.8711 0.00231934 16.9068Z" fill="#C8102E"/>
<path id="Vector_3" d="M0.00231934 20.0463V17.2646C0.686346 17.2905 1.37138 17.3133 2.05541 17.3421C2.79074 17.3729 3.52707 17.3928 4.26139 17.4415C5.26061 17.5123 6.25848 17.5981 7.25502 17.6988C8.12224 17.7885 8.97882 17.9599 9.81308 18.2104C11.5111 18.7181 12.9465 19.6112 14.0379 21.0169C14.894 22.1265 15.3829 23.3932 15.6746 24.7443C15.8839 25.7328 16.0227 26.7347 16.09 27.7425C16.1554 28.6624 16.2188 29.5823 16.2641 30.5042C16.3123 31.4768 16.3385 32.4504 16.3747 33.424H13.5581C13.4213 33.417 13.2835 33.4061 13.1467 33.4041C11.1057 33.3783 9.06568 33.3326 7.04377 33.0137C6.05093 32.8567 5.0782 32.6232 4.15778 32.2139C3.3621 31.8662 2.65795 31.4102 2.10268 30.7427C1.45085 29.9539 1.05753 29.0389 0.781909 28.0703C0.344333 26.5344 0.190427 24.9529 0.112971 23.3723C0.060663 22.3143 0.0485917 21.2553 0.0184141 20.1933C0.0174082 20.1466 0.00734895 20.096 0.00231934 20.0463Z" fill="#C8102E"/>
<path id="Vector_4" d="M16.7427 0.747325C17.3151 0.747325 17.8704 0.742358 18.4256 0.747325C19.5754 0.76024 20.7262 0.768187 21.876 0.799977C23.3446 0.840708 24.8092 0.932105 26.2598 1.18146C27.2508 1.33723 28.2165 1.62218 29.1317 2.02886C30.4987 2.65771 31.4151 3.68989 31.9674 5.06184C32.3265 5.98239 32.5769 6.94076 32.7138 7.91798C32.9934 9.74789 33.0548 11.5937 33.0789 13.4385C33.093 14.5363 33.094 15.634 33.101 16.7318V16.8917C33.0677 16.8967 33.0341 16.8997 33.0004 16.9007C31.9898 16.8609 30.9789 16.8205 29.9676 16.7795C29.3992 16.7556 28.8319 16.7338 28.2646 16.695C27.6972 16.6563 27.143 16.6006 26.5817 16.55C25.7054 16.4727 24.8358 16.3343 23.9793 16.1357C22.2904 15.7383 20.7865 15.0101 19.5865 13.7435C18.663 12.7699 18.0524 11.6215 17.6752 10.3459C17.44 9.55303 17.2758 8.74125 17.1843 7.91996C17.0918 7.08845 17.0093 6.25595 16.951 5.42246C16.8886 4.52836 16.8584 3.63426 16.8192 2.74712C16.791 2.13615 16.7699 1.5232 16.7468 0.911243C16.7367 0.862564 16.7427 0.812892 16.7427 0.747325Z" fill="#C8102E"/>
</g>
</svg>

<svg width="34" height="34" fill="none" xmlns="http://www.w3.org/2000/svg"><path d="M19.55 33.426h-2.816c.042-1.067.08-2.133.13-3.2.036-.785.067-1.572.14-2.355a40.9 40.9 0 01.307-2.488c.125-.84.35-1.662.67-2.45.894-2.179 2.463-3.682 4.688-4.511 1.3-.485 2.662-.687 4.036-.822.578-.058 1.157-.1 1.737-.135.79-.048 1.581-.088 2.373-.12.646-.028 1.291-.041 1.937-.062.11 0 .221-.013.345-.02v.165c-.007 1.098-.008 2.197-.022 3.294-.025 1.907-.087 3.811-.392 5.699-.141.985-.41 1.949-.799 2.867-.42.948-1.006 1.77-1.891 2.357a7.883 7.883 0 01-2.186.988c-1.284.374-2.601.55-3.931.628-1.216.074-2.436.1-3.655.142l-.67.023zM.002 16.907v-2.782c.007-.178.02-.355.022-.534.027-1.898.082-3.794.369-5.675C.53 6.94.78 5.981 1.14 5.06c.58-1.442 1.567-2.484 3.018-3.11 1.016-.435 2.08-.68 3.168-.84a30.623 30.623 0 013.85-.305C12.863.77 14.552.766 16.241.75h.123v.186c-.042 1.025-.08 2.049-.125 3.073-.03.658-.053 1.317-.113 1.973a57.94 57.94 0 01-.276 2.455 11.8 11.8 0 01-.619 2.525c-.596 1.611-1.581 2.929-3.029 3.896-1 .669-2.112 1.073-3.281 1.33a21.517 21.517 0 01-3.137.437c-.931.065-1.864.128-2.796.173-.998.048-1.993.074-2.987.11zm0 3.139v-2.781c.684.026 1.37.048 2.053.077.736.03 1.472.05 2.206.1 1 .07 1.997.156 2.994.257.867.09 1.724.26 2.558.511 1.698.508 3.133 1.401 4.225 2.807.856 1.11 1.345 2.376 1.637 3.727.209.989.348 1.99.415 2.998.065.92.129 1.84.174 2.762.048.973.075 1.946.11 2.92h-2.816c-.137-.007-.274-.018-.411-.02-2.041-.026-4.081-.071-6.103-.39-.993-.157-1.966-.39-2.886-.8-.796-.348-1.5-.804-2.055-1.471-.652-.79-1.045-1.704-1.321-2.673-.438-1.536-.592-3.117-.669-4.698-.052-1.058-.064-2.117-.095-3.179 0-.046-.01-.097-.016-.147zM16.743.747c.572 0 1.127-.005 1.683 0 1.15.013 2.3.021 3.45.053 1.469.04 2.933.132 4.384.381.99.156 1.956.441 2.872.848 1.367.629 2.283 1.66 2.835 3.033.36.92.61 1.879.747 2.856.28 1.83.34 3.676.365 5.52.014 1.098.015 2.196.022 3.294v.16a.847.847 0 01-.1.009c-1.011-.04-2.022-.08-3.033-.122-.569-.023-1.136-.045-1.703-.084-.568-.039-1.122-.094-1.683-.145a18.856 18.856 0 01-2.603-.414c-1.689-.398-3.192-1.126-4.392-2.393-.924-.973-1.535-2.122-1.912-3.397-.235-.793-.4-1.605-.49-2.426a61.267 61.267 0 01-.234-2.498c-.062-.894-.093-1.788-.132-2.675-.028-.61-.05-1.224-.072-1.836-.01-.048-.004-.098-.004-.164z" fill="#C8102E"/></svg>
